X: 354
T: A Slip Of A Thing
R: slip jig
M: 9/8
K: Gmajor
~B3 AGA Bgf|e2g edB dBG|ABA AGE DEG|cBG DEG ABc|
~B3 AGA Bgf|e2g edB dBG|ABA AGE DEG|cBG DEG ABc||
d2d edc BAG|F2 d2 AG FED|E2c {d}cBc AGE|DGF AGB ABc|
d2g edc BAG|F2 d2 AG FED|E2c {d}cBc AGE|DdB AGD EGB||
A3 AGE GAB|~c3 BAG ABd|~e3 edB dBG|AcB AGE DEG|
ABA AGE GAB|~c3 BAG ABd|egf edB dBG|AcB DEG cBA||

